X:1
T:Title
%%score { ( 1 3 ) | ( 2 4 ) }
L:1/8
Q:1/4=100
M:4/4
K:G
V:1 treble nm="Grand Piano"
V:3 treble 
V:2 bass 
V:4 bass 
V:1
 [DB]3 [CA] [B,G]2 [G,D]2 | [G,CE]2 [CDF]2 [B,DG]2 A2 | B3 A G2 F2 | G2 B2 [FA]4 | B3 A G2 D2 | %5
w: Theo.~E.~Perkins * * *|||||
 E2 [CDF]2 [B,DG]2 A2 | B2 d2 d2 [DG]2 | [DGB]2 [CFA]2 [B,G]4 | [B,D]3 [B,DG] [B,DG]2 [DFA]2 | %9
w: ||||
 [DGB]3 [DFA] B2 d2 | d3 e d2 d2 | z4 [FA]4 | [B,D]3 [B,DG] [B,DG]2 [DFA]2 | [DGB]3 [DFA] B2 d2 | %14
w: |||||
 d3 e d2 [DG]2 | [DGB]2 [CDA]2 [G,B,DG]4 |] %16
w: ||
V:2
 [G,,G,]3 [G,,G,] [G,,G,]2 B,,2 | C,2 A,,2 G,,2 [D,F,D]2 | [G,D]3 [G,CF] [G,B,]2 [A,CD]2 | %3
 [B,D]2 [G,DG]2[K:bass] [D,D]4 | [G,D]3 [G,C] [G,B,]2 [B,,G,]2 | [C,G,C]2 A,,2 G,,2 [D,F,D]2 | %6
 [G,D]2 [G,B,G]2 [G,B,G]2[K:bass] B,,2 | D,2 D,2 G,,4 | G,3 G, G,2 D,2 | %9
 G,3 D,[K:treble] [G,DG]2 [G,B,G]2 | [G,B,G]3 [G,CG] [G,B,G]2 [G,B,G]2 | %11
 [G,DG]2[K:bass] B,,2 z2 C2 | G,3 G, G,2 D,2 | G,3 D,[K:treble] [G,DG]2 [G,B,G]2 | %14
 [G,B,G]3 [G,CG] [G,B,G]2[K:bass] B,,2 | D,2 D,2 G,,4 |] %16
V:3
 x8 | x8 | x8 | x8 | x8 | x8 | x8 | x8 | x8 | x8 | x8 | B2 [DG]2 D2 z2 | x8 | x8 | x8 | x8 |] %16
V:4
 x8 | x8 | x8 | x4[K:bass] x4 | x8 | x8 | x6[K:bass] x2 | x8 | x8 | x4[K:treble] x4 | x8 | %11
 z4[K:bass] D,4 | x8 | x4[K:treble] x4 | x6[K:bass] x2 | x8 |] %16

